X:1
T:Pacifique Cotillion. TWC.250, La
T:Pacifique Cotillion. TWC.250, La
T:French
C:French
L:1/8
Q:1/4=100
M:6/8
K:A
V:1 treble 
V:1
 e | cAe dBf | e2 a a2 e | dBe cAe | B2 B B2 e | cAe dBf | e2 a a2 e | afd cdB | A3 A2 || B | %10
 EGB e2 e | e2 ^d d2 e | ^DAB f2 a | a2 g g2 e | cec B2 e | cec B2 e | c^de f2 e | ^d"^sic"B B2 B | %18
 EGB e2 e | e2 ^d d2 e | ^DAB f2 a | a2 g g2 e | cec B2 e | cec B2 e | caf e2 ^d | e3 e2!D.C.! |] %26

